img/link_icon.svg

<svg height="182" viewBox="0 0 182 182" width="182" xmlns="http://www.w3.org/2000/svg"><g fill="#d3205c"><path d="m106.675 136.08-.155.009c-2.378.137-4.838.279-7.51.279-6.968 0-13.016-1.043-19.046-3.287-.539-.199-1.118-.299-1.721-.299-1.518 0-3.208.67-4.306 1.708-.039.035-.074.072-.111.109l-9.525 9.731c-3.883 3.781-8.825 5.863-13.922 5.863-5.303 0-10.188-2.229-13.758-6.281-6.898-7.814-6.357-18.653 1.317-26.358 9.717-9.761 31.504-31.284 33.393-33.149 4.505-3.682 9.628-5.79 14.08-5.79 7.076 0 12.434 5.229 15.925 15.543.44 1.301 1.519 2.286 2.854 2.607 1.34.32 2.744-.065 3.728-1.025l16-15.593c1.358-1.311 3.271-4.064.842-7.74-9.638-14.861-23.525-22.601-41.283-23.006-13.421-.287-25.118 4.297-34.743 13.635l-33.514 33.452c-11.953 12.306-16.581 27.624-13.383 44.297 4.46 23.385 26.037 41.019 50.188 41.019 11.582 0 22.333-4.323 30.253-12.151l27.419-26.713c1.196-1.165 1.543-2.951.869-4.479-.673-1.53-2.225-2.478-3.891-2.381zm-30 27.862c-6.527 6.451-15.051 9.861-24.65 9.861-17.328 0-38.054-12.098-42.332-34.521-2.723-14.2 1.067-26.722 11.222-37.176l33.43-33.368c7.763-7.531 17.177-11.35 27.979-11.35.327 0 .653.004.977.01 14.44.329 25.842 6.422 33.911 18.112l-10.641 10.37c-3.557-7.246-10.01-15.267-21.159-15.267-8.66 0-15.815 4.844-19.31 7.733-.091.074-.178.153-.262.236-.233.231-23.436 23.145-33.57 33.325-10.62 10.663-11.312 26.349-1.647 37.295 5.108 5.796 12.124 8.989 19.757 8.989 7.194 0 14.121-2.889 19.571-8.201l8.699-8.885c5.802 1.998 11.654 3.041 18.148 3.23z"/><path d="m180.115 41.527c-4.462-23.385-26.039-41.019-50.189-41.019-11.582 0-22.333 4.323-30.253 12.151l-27.421 26.715c-1.195 1.166-1.542 2.952-.868 4.479s2.217 2.476 3.892 2.379l.148-.008c2.38-.138 4.842-.281 7.519-.281 6.966 0 13.013 1.044 19.043 3.288.539.198 1.118.299 1.721.299 1.52 0 3.211-.672 4.31-1.711.036-.035.071-.071.106-.105l9.527-9.73c3.881-3.781 8.825-5.863 13.922-5.863 5.302 0 10.187 2.229 13.758 6.282 6.898 7.813 6.357 18.652-1.317 26.357-9.717 9.759-31.502 31.281-33.393 33.15-4.504 3.681-9.627 5.789-14.079 5.789-7.076 0-12.435-5.229-15.926-15.544-.44-1.302-1.519-2.286-2.854-2.607-1.339-.321-2.743.066-3.728 1.025l-15.998 15.591c-2.316 2.233-2.617 5.066-.844 7.742 9.636 14.861 23.523 22.64 41.283 23.044.384.009.764.051 1.145.051h.004c12.957 0 24.246-4.617 33.594-13.686l33.514-33.47c11.954-12.306 16.581-27.645 13.384-44.318zm-19.08 38.68-33.429 33.406c-7.764 7.53-17.179 11.388-27.983 11.388h-.004c-.324 0-.648-.042-.969-.049-14.441-.33-25.843-6.44-33.911-18.132l10.641-10.381c3.556 7.247 10.011 15.264 21.16 15.264 8.659 0 15.813-4.847 19.308-7.734.091-.075.179-.155.263-.238.233-.23 23.436-23.147 33.57-33.326 10.62-10.663 11.312-26.349 1.647-37.295-5.108-5.797-12.125-8.99-19.757-8.99-7.194 0-14.121 2.888-19.57 8.2l-8.702 8.885c-5.803-1.999-11.652-3.041-18.146-3.229l20.123-19.606c6.527-6.45 15.051-9.861 24.65-9.861 17.328 0 38.054 12.098 42.332 34.522 2.722 14.198-1.068 26.72-11.223 37.176z"/></g></svg>

<svg xmlns="http://www.w3.org/2000/svg" width="182" height="182" viewBox="0 0 182 182">
  <g fill="#D3205C">
    <path d="M106.675,136.08 L106.52,136.089 C104.142,136.226 101.682,136.368 99.01,136.368 C92.042,136.368 85.994,135.325 79.964,133.081 C79.425,132.882 78.846,132.782 78.243,132.782 C76.725,132.782 75.035,133.452 73.937,134.49 C73.898,134.525 73.863,134.562 73.826,134.599 L64.301,144.33 C60.418,148.111 55.476,150.193 50.379,150.193 C45.076,150.193 40.191,147.964 36.621,143.912 C29.723,136.098 30.264,125.259 37.938,117.554 C47.655,107.793 69.442,86.27 71.331,84.405 C75.836,80.723 80.959,78.615 85.411,78.615 C92.487,78.615 97.845,83.844 101.336,94.158 C101.776,95.459 102.855,96.444 104.19,96.765 C105.53,97.085 106.934,96.7 107.918,95.74 L123.918,80.147 C125.276,78.836 127.189,76.083 124.76,72.407 C115.122,57.546 101.235,49.806 83.477,49.401 C70.056,49.114 58.359,53.698 48.734,63.036 L15.22,96.488 C3.267,108.794 -1.361,124.112 1.837,140.785 C6.297,164.17 27.874,181.804 52.025,181.804 C63.607,181.804 74.358,177.481 82.278,169.653 L109.697,142.94 C110.893,141.775 111.24,139.989 110.566,138.461 C109.893,136.931 108.341,135.983 106.675,136.08 Z M76.675,163.942 C70.148,170.393 61.624,173.803 52.025,173.803 C34.697,173.803 13.971,161.705 9.693,139.282 C6.97,125.082 10.76,112.56 20.915,102.106 L54.345,68.738 C62.108,61.207 71.522,57.388 82.324,57.388 C82.651,57.388 82.977,57.392 83.301,57.398 C97.741,57.727 109.143,63.82 117.212,75.51 L106.571,85.88 C103.014,78.634 96.561,70.613 85.412,70.613 C76.752,70.613 69.597,75.457 66.102,78.346 C66.011,78.42 65.924,78.499 65.84,78.582 C65.607,78.813 42.404,101.727 32.27,111.907 C21.65,122.57 20.958,138.256 30.623,149.202 C35.731,154.998 42.747,158.191 50.38,158.191 C57.574,158.191 64.501,155.302 69.951,149.99 L78.65,141.105 C84.452,143.103 90.304,144.146 96.798,144.335 L76.675,163.942 Z"/>
    <path d="M180.115,41.527 C175.653,18.142 154.076,0.508 129.926,0.508 C118.344,0.508 107.593,4.831 99.673,12.659 L72.252,39.374 C71.057,40.54 70.71,42.326 71.384,43.853 C72.058,45.38 73.601,46.329 75.276,46.232 L75.424,46.224 C77.804,46.086 80.266,45.943 82.943,45.943 C89.909,45.943 95.956,46.987 101.986,49.231 C102.525,49.429 103.104,49.53 103.707,49.53 C105.227,49.53 106.918,48.858 108.017,47.819 C108.053,47.784 108.088,47.748 108.123,47.714 L117.65,37.984 C121.531,34.203 126.475,32.121 131.572,32.121 C136.874,32.121 141.759,34.35 145.33,38.403 C152.228,46.216 151.687,57.055 144.013,64.76 C134.296,74.519 112.511,96.041 110.62,97.91 C106.116,101.591 100.993,103.699 96.541,103.699 C89.465,103.699 84.106,98.47 80.615,88.155 C80.175,86.853 79.096,85.869 77.761,85.548 C76.422,85.227 75.018,85.614 74.033,86.573 L58.035,102.164 C55.719,104.397 55.418,107.23 57.191,109.906 C66.827,124.767 80.714,132.546 98.474,132.95 C98.858,132.959 99.238,133.001 99.619,133.001 L99.623,133.001 C112.58,133.001 123.869,128.384 133.217,119.315 L166.731,85.845 C178.685,73.539 183.312,58.2 180.115,41.527 Z M161.035,80.207 L127.606,113.613 C119.842,121.143 110.427,125.001 99.623,125.001 L99.619,125.001 C99.295,125.001 98.971,124.959 98.65,124.952 C84.209,124.622 72.807,118.512 64.739,106.82 L75.38,96.439 C78.936,103.686 85.391,111.703 96.54,111.703 C105.199,111.703 112.353,106.856 115.848,103.969 C115.939,103.894 116.027,103.814 116.111,103.731 C116.344,103.501 139.547,80.584 149.681,70.405 C160.301,59.742 160.993,44.056 151.328,33.11 C146.22,27.313 139.203,24.12 131.571,24.12 C124.377,24.12 117.45,27.008 112.001,32.32 L103.299,41.205 C97.496,39.206 91.647,38.164 85.153,37.976 L105.276,18.37 C111.803,11.92 120.327,8.509 129.926,8.509 C147.254,8.509 167.98,20.607 172.258,43.031 C174.98,57.229 171.19,69.751 161.035,80.207 Z"/>
  </g>
</svg>
